X:1
T:Gray's Opera House -- Clog
R:clog
B:Ryan's Mammoth Collection
N: 159 949
Z: Contributed by Ray Davies,  ray:davies99.freeserve.co.uk
M:C|
L:1/8
K:G
u(B>.c)|\
v(d>^c)"^SEGUE"d>f g>e=c>A | G>FG>A B>GD>B, |\
 G>FA>G B>Ac>B | d>ce>c A2B>c |
d>^cd>f g>e=c>A | G>FG>A B>GD>B, | G,>gf>e d>ef>e |\
 d>^c=c>A G2 H:|
|:u(F>.G)|\
v(A>.B)"^SEGUE"A>G F>A d>f | e>fe>^c A>ce>g |\
 f>ed>f e>d^c>e | (3dfe (3dcB A2F>G |
A>BA>G F>A d>f | e>fe>^c A>ce>g | f>ed>f e>d^c>e |\
 d2 f2 d2:|
